X: 41389
T: Twelve Pins, The
R: reel
M: 4/4
K: Gmajor
dB~B2 dBGB|dA~A2 dAFA|DEFG ABcA|defg abge|
dB~B2 dBgB|dA~A2 fdAF|DEFG ABcA|1 d2cd AGGB:|2 d2cd AGGg||
~f3e defg|adfd cAAB|cA~A2 DFAB|cedB cAA2|
~f2ef defg|(3agf ga fdAB|c2cB cBAB|~c2dc AGG2|
fd~d2 ad~d2|fded cAAB|cedB cdeg|abga fdde|
~f3g ~a3g|~f2ed cAAB|cBcB cBAB|~c2dc AGGB||

